X: 673
T: Evcârâ Sazsemâîsi
C: Dilhayat Kalfa
O: Turkey
F: http://compmusic.upf.edu/node/140
N: evcara--sazsemaisi--aksaksemai----dilhayat_kalfa
N: makam= evcara
N: form= sazsemaisi
N: usul= aksaksemai = 10/8
M: 10/8
L: 1/16
K: C _1/4B ^f ^c ^A
Q: 1/4=144
%%MIDI tuningsystem comma53
f4 ^g2f4^e4d4e2  | c2d2 ^e2f2 e2e2 d2c4z2  | \
w:  1. HANE  |   | 
d4 c2d4^e4d2 c2d2  | 
w:   | 
^e2f2 e2=a2 ^g2g2 f2f4z2  | f4 ^e2f2 e2f2 ^g2f4e2  | \
w:   |   | 
^e2d2 c2B2 c2A2 B2c4z2  | 
w:   | 
B4 c2B2 A2G2 A2B4z2  | F4 G2F2 ^E2F2 G2A2 B2c2  | \
w:   |   | 
A4 G2A2 F2G2 ^E2F4z2  | 
w:   | 
d4 ddd2 c2B2 c2d4z2  | B4 c2B2 A2G2 A2B4z2  | \
w:  TESLİM  |   | 
F4 G2F2 ^E2F2 G2A2 B2c2  | 
w:   | 
A4 G2A2 F2G2 ^E2F4z2  | d4 ddd2 c2B2 c2d4z2  | \
w:   |  TESLİM  | 
B4 c2B2 A2G2 A2B4z2  | 
w:   | 
F4 G2F2 ^E2F2 G2A2 B2c2  | A4 G2A2 F2G2 ^E2F4z2  | \
w:   |   | 
F4 G2G2 F2G2 A2G4F2  | 
w:  2. HANE  | 
G4 BBB2 A2G2 A2B4A2  | B4 ddd2 c2B2 c2d4c2  | \
w:   |   | 
d4 f2f2 ^e2d2 e2f4e2  | 
w:   | 
f4 ^e2f2 ^g2e2 f2g4z2  | f2^g2 =a2g4f4^e4d2  | \
w:   |   | 
c2d2 ^e2f2 e2e2 d2c4B2  | 
w:   | 
=A2B2 c2d2 c2c2 B2A4G2  | F4 G2F2 ^E2F2 G2A2 B2c2  | \
w:   |   | 
A4 G2A2 F2G2 ^E2F4z2  | 
w:   | 
d4 ddd2 c2B2 c2d4z2  | B4 c2B2 A2G2 A2B4z2  | \
w:  TESLİM  |   | 
F4 G2F2 ^E2F2 G2A2 B2c2  | 
w:   | 
A4 G2A2 F2G2 ^E2F4z2  | d4 ddd2 c2B2 c2d4z2  | \
w:   |  TESLİM  | 
B4 c2B2 A2G2 A2B4z2  | 
w:   | 
F4 G2F2 ^E2F2 G2A2 B2c2  | A4 G2A2 F2G2 ^E2F4z2  | \
w:   |   | 
f4 ^e2f2 ^g2e2 f2g4z2  | 
w:  3. HANE  | 
f2^g2 =a2g2 f2f2 ^e2e4d2  | c4 c2d4^e4f4^g2  | \
w:   |   | 
=a4 ^g2g2 f2^e2 f2g4z2  | 
w:   | 
^g4 ggg4=a2 f2g4z2  | f2^g2 =a2g4f4^e4d2  | \
w:   |   | 
^e4 f2^g2 f2e2 d2c4B2  | 
w:   | 
c4 d2^e2 c2d2 B2c4z2  | d4 ddd2 c2B2 c2d4z2  | \
w:   |  TESLİM  | 
B4 c2B2 A2G2 A2B4z2  | 
w:   | 
F4 G2F2 ^E2F2 G2A2 B2c2  | A4 G2A2 F2G2 ^E2F4z2  | \
w:   |   | 
d4 ddd2 c2B2 c2d4z2  | 
w:  TESLİM  | 
B4 c2B2 A2G2 A2B4z2  | F4 G2F2 ^E2F2 G2A2 B2c2  | \
w:   |   | 
A4 G2A2 F2G2 ^E2F4z2  | 
w:   | 
z12  | F2F2G2A2B4  | c2B2A2B2B4  | d2c2B2c2B2A2  | \
w:  |  4. HANE  |   |   | 
B2B2A2G2F4  | 
w:   | 
F2F2G2A2B4  | c2B2A2B2B4  | d2c2B2c2B2A2  | \
w:   |   |   | 
B2c2d2^e2f4  | 
w:   | 
f^ef2^g2fef4  | BAB2c2BAB4  | f^ef2^g2fef4  | 
w:   |   |   | 
BAB2c2BAB4  | ^g2f2^e2d2=g4  | f2f2^e2d2c4  | \
w:   |   |   | 
d2c2B2c2B2A2  | 
w:   | 
B2c2d2^e2f4  | f^ef2^g2fef4  | BAB2c2BAB4  | \
w:   |   |   | 
f^ef2^g2fef4  | 
w:   | 
BAB2c2BAB4  | ^g2f2^e2d2=g4  | f2f2^e2d2c4  | \
w:   |   |   | 
d2c2B2c2B2A2  | 
w:   | 
B2B2c2BAB4  | B4c2d4c2  | B4d2c4B2  | A4c2B4A2  | \
w:   |   |   |   | 
G4B2A4G2  | 
w:   | 
z20  | F4 G2F2 ^E2F2 G2A2 B2c2  | A4 G2A2 F2G2 ^E2F4z2  | \
w:  |   |   | 
d4 ddd2 c2B2 c2d4z2  | 
w:  TESLİM  | 
B4 c2B2 A2G2 A2B4z2  | F4 G2F2 ^E2F2 G2A2 B2c2  | \
w:   |   | 
A4 G2A2 F2G2 ^E2F4z2  | 
w:   | 
d4 ddd2 c2B2 c2d4z2  | B4 c2B2 A2G2 A2B4z2  | \
w:   |   | 
F4 G2F2 ^E2F2 G2A2 B2c2  | 
w:   | 
A4 G2A2 F2G2 ^E2F4z2  | |


